X:59
T:Pretty Little Dog
S:Bernie Waugh
R:Reel
M:2/4
L:1/16
K:Am
"Am"A2E2 G2AG|EDC2 A,3G,|A,G,A,B, C2D2|"Em"E3G EDC2|
"Am"A3A E2DD|EDC2 A,3G,|A,G,A,B, "Em"C2C2|"Am"A,3B,A,2 A,B,|
"Am"C2A,B, C2CD|ED (3CB,A, "G"G,3G,|"Am"A,G,A,B, C2D2|"Em"E3GE2 (3EFG|
"C"A2E2 G2AG|"D"EDC2 A,3G,|"F"A,G,A,B, C2C2|"Am"A,3B,A,2||
(3efg|\
"Am"a2g2 edcd|eged cAG2|AGAB c2d2|"Em"e3ge2 (3efg|
"Am"a2g2 edcd|eged cAG2|AGAB "Em"c2c2|"Am"A3BA2 AB|
"Am"c2AB c2cd|ed (3cBA "G"G3G|"Am"AGAB c2d2|"Em"e3g edc2|
"C"A/A/AAA c2cc|"D"[Dd][d2^f2][ce] [d3f3] A-|"F"AGAB c2c2|"Am"A3BA2|]

